Numix/16/status/indicator-keyboard-Zh-4.svg

<?xml version="1.0" encoding="UTF-8" standalone="no"?>
<svg
   xmlns:dc="http://purl.org/dc/elements/1.1/"
   xmlns:cc="http://creativecommons.org/ns#"
   xmlns:rdf="http://www.w3.org/1999/02/22-rdf-syntax-ns#"
   xmlns:svg="http://www.w3.org/2000/svg"
   xmlns="http://www.w3.org/2000/svg"
   xmlns:sodipodi="http://sodipodi.sourceforge.net/DTD/sodipodi-0.dtd"
   xmlns:inkscape="http://www.inkscape.org/namespaces/inkscape"
   viewBox="0 0 16 16"
   id="svg2"
   version="1.1"
   inkscape:version="0.91 r13725"
   sodipodi:docname="indicator-keyboard-Zh-4.svg">
  <metadata
     id="metadata14">
    <rdf:RDF>
      <cc:Work
         rdf:about="">
        <dc:format>image/svg+xml</dc:format>
        <dc:type
           rdf:resource="http://purl.org/dc/dcmitype/StillImage" />
      </cc:Work>
    </rdf:RDF>
  </metadata>
  <defs
     id="defs12" />
  <sodipodi:namedview
     pagecolor="#ffffff"
     bordercolor="#666666"
     borderopacity="1"
     objecttolerance="10"
     gridtolerance="10"
     guidetolerance="10"
     inkscape:pageopacity="0"
     inkscape:pageshadow="2"
     inkscape:window-width="640"
     inkscape:window-height="480"
     id="namedview10"
     showgrid="false"
     inkscape:zoom="14.75"
     inkscape:cx="8"
     inkscape:cy="8"
     inkscape:window-x="75"
     inkscape:window-y="34"
     inkscape:window-maximized="0"
     inkscape:current-layer="svg2" />
  <path
     style="fill:#ececec;fill-opacity:1"
     d="M 1.5996094 0 C 0.71320937 2.9605947e-16 0 0.71320937 0 1.5996094 L 0 14.400391 C 2.9605947e-16 15.286791 0.71320937 16 1.5996094 16 L 14.400391 16 C 15.286791 16 16 15.286791 16 14.400391 L 16 1.5996094 C 16 0.71320937 15.286791 0 14.400391 0 L 1.5996094 0 z M 7.6484375 4.1113281 L 7.6484375 6.578125 C 7.8404375 6.506125 8.036375 6.4520156 8.234375 6.4160156 C 8.432375 6.3740156 8.630125 6.3535156 8.828125 6.3535156 C 9.188125 6.3535156 9.4885156 6.4038594 9.7285156 6.5058594 C 9.9685157 6.6078594 10.160687 6.7552656 10.304688 6.9472656 C 10.448688 7.1332656 10.547562 7.3570938 10.601562 7.6210938 C 10.661563 7.8850938 10.691406 8.1761406 10.691406 8.4941406 L 10.691406 11.095703 L 10.105469 11.095703 L 10.105469 8.6835938 C 10.105469 8.3535938 10.083156 8.0756562 10.035156 7.8476562 C 9.9931563 7.6196563 9.9165938 7.4330625 9.8085938 7.2890625 C 9.7065937 7.1450625 9.5685313 7.0424219 9.3945312 6.9824219 C 9.2205313 6.9164219 9.0022813 6.8847656 8.7382812 6.8847656 C 8.6362812 6.8847656 8.52625 6.8921562 8.40625 6.9101562 C 8.29225 6.9281563 8.1840313 6.9506094 8.0820312 6.9746094 C 7.9800313 6.9926094 7.8867344 7.0131094 7.8027344 7.0371094 C 7.7247344 7.0611094 7.6724375 7.0797969 7.6484375 7.0917969 L 7.6484375 11.095703 L 7.0644531 11.095703 L 7.0644531 4.2207031 L 7.6484375 4.1113281 z M 1.7578125 4.859375 L 5.8359375 4.859375 L 5.8359375 5.4179688 C 5.6919375 5.5859687 5.5240312 5.7892969 5.3320312 6.0292969 C 5.1460312 6.2692969 4.9445156 6.5323125 4.7285156 6.8203125 C 4.5125156 7.1023125 4.2905 7.4064687 4.0625 7.7304688 C 3.8405 8.0484688 3.6184844 8.3711719 3.3964844 8.7011719 C 3.1804844 9.0251719 2.9733906 9.3460625 2.7753906 9.6640625 C 2.5833906 9.9820627 2.4099063 10.282453 2.2539062 10.564453 L 5.9257812 10.564453 L 5.9257812 11.095703 L 1.5878906 11.095703 L 1.5878906 10.636719 C 1.7198906 10.378719 1.8746875 10.097016 2.0546875 9.7910156 C 2.2406875 9.4790156 2.4403906 9.1618906 2.6503906 8.8378906 C 2.8603906 8.5078906 3.0786406 8.1776562 3.3066406 7.8476562 C 3.5346406 7.5176562 3.7604219 7.2023438 3.9824219 6.9023438 C 4.2044219 6.5963438 4.4133281 6.3146406 4.6113281 6.0566406 C 4.8153281 5.7986406 5.0019219 5.576625 5.1699219 5.390625 L 1.7578125 5.390625 L 1.7578125 4.859375 z M 13.511719 8.8417969 L 13.910156 8.8417969 L 13.910156 11.486328 L 14.412109 11.486328 L 14.412109 11.796875 L 13.910156 11.796875 L 13.910156 12.896484 L 13.535156 12.896484 L 13.535156 11.796875 L 11.697266 11.796875 L 11.697266 11.5625 C 11.767466 11.3753 11.865434 11.163687 11.990234 10.929688 C 12.118934 10.695688 12.263928 10.456637 12.423828 10.210938 C 12.583728 9.9652374 12.756159 9.7261874 12.943359 9.4921875 C 13.130559 9.2542875 13.320619 9.0367969 13.511719 8.8417969 z M 13.535156 9.2695312 C 13.398656 9.4099312 13.259541 9.5706063 13.119141 9.7539062 C 12.978741 9.9372063 12.845497 10.129225 12.716797 10.328125 C 12.591997 10.523125 12.474434 10.719069 12.365234 10.917969 C 12.256034 11.116869 12.163944 11.306928 12.089844 11.486328 L 13.535156 11.486328 L 13.535156 9.2695312 z "
     id="path4" />
</svg>

<svg xmlns="http://www.w3.org/2000/svg" viewBox="0 0 16 16">
 <path d="m 1.6 0 c -0.886 0 -1.6 0.713 -1.6 1.6 l 0 12.801 c 0 0.886 0.713 1.6 1.6 1.6 l 12.801 0 c 0.886 0 1.6 -0.713 1.6 -1.6 l 0 -12.801 c 0 -0.886 -0.713 -1.6 -1.6 -1.6 l -12.801 0 z m 6.05 4.111 l 0 2.467 c 0.192 -0.072 0.388 -0.126 0.586 -0.162 c 0.198 -0.042 0.396 -0.063 0.594 -0.063 c 0.36 0 0.66 0.05 0.9 0.152 c 0.24 0.102 0.432 0.249 0.576 0.441 c 0.144 0.186 0.243 0.41 0.297 0.674 c 0.06 0.264 0.09 0.555 0.09 0.873 l 0 2.602 l -0.586 0 l 0 -2.412 c 0 -0.33 -0.022 -0.608 -0.07 -0.836 c -0.042 -0.228 -0.119 -0.415 -0.227 -0.559 c -0.102 -0.144 -0.24 -0.247 -0.414 -0.307 c -0.174 -0.066 -0.392 -0.098 -0.656 -0.098 c -0.102 0 -0.212 0.007 -0.332 0.025 c -0.114 0.018 -0.222 0.04 -0.324 0.064 c -0.102 0.018 -0.195 0.038 -0.279 0.063 c -0.078 0.024 -0.13 0.043 -0.154 0.055 l 0 4 l -0.584 0 l 0 -6.875 l 0.584 -0.109 z m -5.891 0.748 l 4.078 0 l 0 0.559 c -0.144 0.168 -0.312 0.371 -0.504 0.611 c -0.186 0.24 -0.388 0.503 -0.604 0.791 c -0.216 0.282 -0.438 0.586 -0.666 0.91 c -0.222 0.318 -0.444 0.641 -0.666 0.971 c -0.216 0.324 -0.423 0.645 -0.621 0.963 c -0.192 0.318 -0.365 0.618 -0.521 0.9 l 3.672 0 l 0 0.531 l -4.338 0 l 0 -0.459 c 0.132 -0.258 0.287 -0.54 0.467 -0.846 c 0.186 -0.312 0.386 -0.629 0.596 -0.953 c 0.21 -0.33 0.428 -0.66 0.656 -0.99 c 0.228 -0.33 0.454 -0.645 0.676 -0.945 c 0.222 -0.306 0.431 -0.588 0.629 -0.846 c 0.204 -0.258 0.391 -0.48 0.559 -0.666 l -3.412 0 l 0 -0.531 z m 11.754 3.982 l 0.398 0 l 0 2.645 l 0.502 0 l 0 0.311 l -0.502 0 l 0 1.1 l -0.375 0 l 0 -1.1 l -1.838 0 l 0 -0.234 c 0.07 -0.187 0.168 -0.399 0.293 -0.633 c 0.129 -0.234 0.274 -0.473 0.434 -0.719 c 0.16 -0.246 0.332 -0.485 0.52 -0.719 c 0.187 -0.238 0.377 -0.455 0.568 -0.65 z m 0.023 0.428 c -0.136 0.14 -0.276 0.301 -0.416 0.484 c -0.14 0.183 -0.274 0.375 -0.402 0.574 c -0.125 0.195 -0.242 0.391 -0.352 0.59 c -0.109 0.199 -0.201 0.389 -0.275 0.568 l 1.445 0 l 0 -2.217 z" style="fill:#ececec;fill-opacity:1"/>
</svg>
